X: 139039
Q: "Irish Jig."
M: 6/8
L: 1/8
K: G
ue |\
dcB ABc | BAB uG2ue | dcB ABd | ve2vd efg |\
dcB ABc | BAB G2d | gfg agf | e2d efg :|
|:\
vG2vg {a}gfg | vA2va {b}aga | G2g {a}gfg | e2d efg |\


